public/resources/img/mozilla-logo.svg

<svg width="893" height="234" viewBox="0 0 893 234" xmlns="http://www.w3.org/2000/svg"><title>Imported Layers</title><desc>Created with Sketch.</desc><g fill="none" fill-rule="evenodd"><g fill="#fff"><g><path d="M36.773 67.394c2.706 4.176 3.9 7.9 5.41 15.76 10.58-10.326 23.624-15.76 37.86-15.76 12.86 0 23.414 4.176 31.58 12.698 2.2 2.137 4.322 4.892 6.152 7.597 14.21-14.556 26.937-20.296 43.986-20.296 12.143 0 23.65 3.63 30.678 9.677 8.776 7.585 11.56 16.703 11.56 37.93v110.444h-39.453v-102.53c0-18.587-2.2-22.18-12.78-22.18-7.583 0-18.242 5.172-26.992 13.058v111.652H86.275V124.37c0-19.38-2.81-23.93-14.104-23.93-7.503 0-17.897 3.887-26.647 11.814v113.19H5.806V117.106c0-22.432-1.538-32.122-5.806-39.742l36.773-9.97"/><path d="M349.24 90.435c12.41 14.556 17.95 31.536 17.95 56.714 0 26.697-6.123 44.936-19.514 60.078-11.77 13.337-27.282 21.556-51.198 21.556-42.236 0-69.784-31.566-69.784-80.39 0-48.868 27.84-81.347 69.784-81.347 22.14 0 39.427 7.61 52.762 23.388zm-73.097 22.43c-2.785 8.218-4.268 19.13-4.268 34.614 0 17.854 1.828 31.272 5.142 39.133 3.66 8.5 12.808 12.74 20.627 12.74 17.607 0 25.137-15.762 25.137-52.47 0-20.948-2.73-34.63-8.165-41.627-3.9-5.118-10.235-8.166-17.553-8.166-9.73 0-17.632 6.043-20.92 15.774z"/><path d="M497.956 70.1v27.915l-68.616 99.203h71.295l-9.73 28.226H376.577V200.27l73.046-101.642h-66.95v-28.53h115.282"/><path d="M566.71 27.33c0 13.975-11.11 25.135-25.162 25.135-13.603 0-24.79-11.16-24.79-25.135 0-13.946 11.56-25.2 25.476-25.2 13.63 0 24.475 11.254 24.475 25.2zm-4.772 39.108v159.006H521.29V72.828l40.648-6.39z"/><path d="M635.963 41.305V162.34c0 26.738.32 30.332 2.76 34.574 1.536 2.756 4.823 4.244 8.218 4.244 1.458 0 2.332 0 4.534-.56l6.947 24.246c-6.946 2.72-15.456 4.233-24.257 4.233-17.342 0-31.288-8.17-36.116-21.187-3.048-7.9-3.71-12.778-3.71-34.918V57.024c0-20.31-.53-32.717-2.044-46.73L633.87.897c1.457 8.485 2.093 18.507 2.093 40.41"/><path d="M720.276 41.305V162.34c0 26.738.347 30.332 2.84 34.574 1.43 2.756 4.717 4.244 8.113 4.244 1.536 0 2.464 0 4.61-.56l6.923 24.246c-6.922 2.72-15.434 4.233-24.263 4.233-17.31 0-31.284-8.17-36.136-21.187-3.102-7.9-3.607-12.778-3.607-34.918V57.024c0-20.31-.61-32.717-2.174-46.73l41.52-9.398c1.672 8.485 2.173 18.507 2.173 40.41"/><path d="M784.07 75.876c15.114-6.39 28.108-9.094 42.424-9.094 26.143 0 44.013 9.68 50.136 26.99 2.016 6.366 2.944 11.22 2.76 27.92l-.984 52.155v2.756c0 16.678 2.76 23.067 14.637 31.845l-21.58 24.922c-9.496-3.976-17.95-10.975-21.904-18.84-2.997 3.064-6.364 6.035-9.44 8.18-7.53 5.465-18.53 8.514-31.26 8.514-34.598 0-53.396-17.634-53.396-48.522 0-36.468 25.24-53.48 74.66-53.48 2.97 0 5.78 0 9.148.347v-6.337c0-17.327-3.367-23.095-18.32-23.095-12.887 0-28.185 6.336-44.837 17.59l-17.313-29.137c8.246-5.17 14.32-8.18 25.267-12.714zm52.683 81.613c-28.106 0-37.967 5.116-37.967 23.702 0 12.09 7.69 20.282 18 20.282 7.558 0 15.195-3.95 21.215-10.606l.664-33.38h-1.91z"/></g></g></g></svg>

<?xml version="1.0" encoding="UTF-8" standalone="no"?>
<svg width="893px" height="234px" viewBox="0 0 893 234" version="1.1" xmlns="http://www.w3.org/2000/svg" xmlns:xlink="http://www.w3.org/1999/xlink" xmlns:sketch="http://www.bohemiancoding.com/sketch/ns">
    <!-- Generator: Sketch 3.3.3 (12072) - http://www.bohemiancoding.com/sketch -->
    <title>Imported Layers</title>
    <desc>Created with Sketch.</desc>
    <defs></defs>
    <g id="Page-1" stroke="none" stroke-width="1" fill="none" fill-rule="evenodd" sketch:type="MSPage">
        <g id="Artboard-1" sketch:type="MSArtboardGroup" transform="translate(-5.000000, -4.000000)" fill="#FFFFFF">
            <g id="Imported-Layers" sketch:type="MSLayerGroup" transform="translate(5.000000, 4.000000)">
                <path d="M36.773,67.394 C39.479,71.57 40.672,75.294 42.183,83.154 C52.762,72.828 65.807,67.394 80.044,67.394 C92.904,67.394 103.457,71.57 111.623,80.092 C113.823,82.229 115.945,84.984 117.775,87.689 C131.985,73.134 144.712,67.394 161.761,67.394 C173.903,67.394 185.411,71.024 192.438,77.071 C201.214,84.655 203.997,93.773 203.997,115 L203.997,225.444 L164.545,225.444 L164.545,122.913 C164.545,104.327 162.345,100.734 151.765,100.734 C144.182,100.734 133.523,105.906 124.773,113.792 L124.773,225.444 L86.275,225.444 L86.275,124.37 C86.275,104.991 83.466,100.441 72.171,100.441 C64.667,100.441 54.273,104.327 45.523,112.254 L45.523,225.444 L5.806,225.444 L5.806,117.106 C5.806,94.674 4.268,84.984 0,77.364 L36.773,67.394" id="Fill-1" sketch:type="MSShapeGroup"></path>
                <path d="M349.24,90.435 C361.649,104.991 367.19,121.971 367.19,147.149 C367.19,173.847 361.067,192.086 347.676,207.228 C335.905,220.565 320.394,228.784 296.478,228.784 C254.242,228.784 226.694,197.218 226.694,148.394 C226.694,99.526 254.533,67.047 296.478,67.047 C318.617,67.047 335.905,74.658 349.24,90.435 L349.24,90.435 Z M276.143,112.864 C273.358,121.083 271.875,131.994 271.875,147.479 C271.875,165.334 273.703,178.752 277.017,186.613 C280.676,195.112 289.825,199.354 297.644,199.354 C315.251,199.354 322.781,183.591 322.781,146.883 C322.781,125.935 320.049,112.254 314.615,105.256 C310.715,100.138 304.38,97.09 297.062,97.09 C287.332,97.09 279.43,103.133 276.143,112.864 L276.143,112.864 Z" id="Fill-2" sketch:type="MSShapeGroup"></path>
                <path d="M497.956,70.099 L497.956,98.015 L429.34,197.218 L500.635,197.218 L490.904,225.444 L376.578,225.444 L376.578,200.269 L449.624,98.628 L382.674,98.628 L382.674,70.099 L497.956,70.099" id="Fill-3" sketch:type="MSShapeGroup"></path>
                <path d="M566.709,27.33 C566.709,41.305 555.599,52.465 541.548,52.465 C527.945,52.465 516.758,41.305 516.758,27.33 C516.758,13.384 528.318,2.129 542.234,2.129 C555.864,2.129 566.709,13.384 566.709,27.33 L566.709,27.33 Z M561.938,66.438 L561.938,225.444 L521.29,225.444 L521.29,72.828 L561.938,66.438 L561.938,66.438 Z" id="Fill-4" sketch:type="MSShapeGroup"></path>
                <path d="M635.963,41.305 L635.963,162.34 C635.963,189.078 636.282,192.672 638.722,196.914 C640.259,199.67 643.546,201.158 646.941,201.158 C648.398,201.158 649.272,201.158 651.474,200.599 L658.421,224.844 C651.474,227.563 642.964,229.077 634.163,229.077 C616.821,229.077 602.875,220.908 598.047,207.89 C594.999,199.99 594.336,195.112 594.336,172.972 L594.336,57.024 C594.336,36.715 593.808,24.307 592.293,10.295 L633.87,0.896 C635.327,9.381 635.963,19.403 635.963,41.305" id="Fill-5" sketch:type="MSShapeGroup"></path>
                <path d="M720.276,41.305 L720.276,162.34 C720.276,189.078 720.623,192.672 723.116,196.914 C724.546,199.67 727.833,201.158 731.229,201.158 C732.766,201.158 733.694,201.158 735.841,200.599 L742.763,224.844 C735.841,227.563 727.329,229.077 718.5,229.077 C701.189,229.077 687.216,220.908 682.364,207.89 C679.262,199.99 678.757,195.112 678.757,172.972 L678.757,57.024 C678.757,36.715 678.148,24.307 676.583,10.295 L718.102,0.896 C719.775,9.381 720.276,19.403 720.276,41.305" id="Fill-6" sketch:type="MSShapeGroup"></path>
                <path d="M784.069,75.876 C799.184,69.487 812.178,66.782 826.494,66.782 C852.637,66.782 870.507,76.462 876.63,93.773 C878.646,100.138 879.574,104.991 879.389,121.692 L878.406,173.847 L878.406,176.603 C878.406,193.281 881.165,199.67 893.043,208.448 L871.462,233.37 C861.967,229.394 853.512,222.395 849.559,214.531 C846.563,217.594 843.196,220.565 840.12,222.711 C832.591,228.175 821.589,231.224 808.86,231.224 C774.262,231.224 755.464,213.59 755.464,182.702 C755.464,146.234 780.705,129.222 830.124,129.222 C833.095,129.222 835.905,129.222 839.272,129.569 L839.272,123.233 C839.272,105.906 835.905,100.138 820.952,100.138 C808.065,100.138 792.767,106.474 776.115,117.729 L758.802,88.591 C767.048,83.42 773.121,80.411 784.069,75.876 L784.069,75.876 Z M836.753,157.489 C808.647,157.489 798.786,162.606 798.786,181.192 C798.786,193.281 806.475,201.474 816.787,201.474 C824.344,201.474 831.981,197.524 838.001,190.868 L838.664,157.489 L836.753,157.489 L836.753,157.489 Z" id="Fill-7" sketch:type="MSShapeGroup"></path>
            </g>
        </g>
    </g>
</svg>
